X: 3060
T: Bean An Tí Ar Lár
R: reel
M: 4/4
K: Dmajor
cdec A3d|cdec AGEA|cdec ABAG|EG=cA BGEd|
cdec A3d|cdec AGEd|cdeg fdec|ABcA BdcB||

